public/assets/images/career/08.svg

<svg width="20" height="20" viewBox="0 0 20 20" fill="none" xmlns="http://www.w3.org/2000/svg">
<path d="M7.5 18.125C7.37661 18.1244 7.25616 18.0873 7.15384 18.0183C7.05151 17.9493 6.97189 17.8516 6.925 17.7375L3.95625 10.625H1.25V9.375H4.375C4.49839 9.37562 4.61884 9.41275 4.72116 9.4817C4.82349 9.55066 4.90311 9.64837 4.95 9.7625L7.5 15.8L12.5375 2.28125C12.5822 2.16163 12.6625 2.05856 12.7675 1.98593C12.8725 1.9133 12.9973 1.87459 13.125 1.875C13.2539 1.87726 13.3789 1.9193 13.483 1.99539C13.587 2.07147 13.665 2.17787 13.7063 2.3L16.075 9.375H18.75V10.625H15.625C15.494 10.6253 15.3662 10.5845 15.2596 10.5082C15.1531 10.432 15.0732 10.3241 15.0312 10.2L13.125 4.375L8.0875 17.7188C8.0428 17.8384 7.96254 17.9414 7.8575 18.0141C7.75247 18.0867 7.6277 18.1254 7.5 18.125Z" fill="#525252"/>
<path d="M7.5 18.125C7.37661 18.1244 7.25616 18.0873 7.15384 18.0183C7.05151 17.9493 6.97189 17.8516 6.925 17.7375L3.95625 10.625H1.25V9.375H4.375C4.49839 9.37562 4.61884 9.41275 4.72116 9.4817C4.82349 9.55066 4.90311 9.64837 4.95 9.7625L7.5 15.8L12.5375 2.28125C12.5822 2.16163 12.6625 2.05856 12.7675 1.98593C12.8725 1.9133 12.9973 1.87459 13.125 1.875C13.2539 1.87726 13.3789 1.9193 13.483 1.99539C13.587 2.07147 13.665 2.17787 13.7063 2.3L16.075 9.375H18.75V10.625H15.625C15.494 10.6253 15.3662 10.5845 15.2596 10.5082C15.1531 10.432 15.0732 10.3241 15.0312 10.2L13.125 4.375L8.0875 17.7188C8.0428 17.8384 7.96254 17.9414 7.8575 18.0141C7.75247 18.0867 7.6277 18.1254 7.5 18.125Z" fill="black" fill-opacity="0.8"/>
</svg>

<svg xmlns="http://www.w3.org/2000/svg" width="20" height="20" fill="none" viewBox="0 0 20 20"><path fill="#525252" d="M7.5 18.125a.63.63 0 0 1-.575-.387l-2.969-7.113H1.25v-1.25h3.125a.63.63 0 0 1 .575.387L7.5 15.8l5.038-13.519a.625.625 0 0 1 .587-.406.625.625 0 0 1 .581.425l2.369 7.075h2.675v1.25h-3.125a.625.625 0 0 1-.594-.425l-1.906-5.825-5.037 13.344a.625.625 0 0 1-.588.406"/><path fill="#000" fill-opacity=".8" d="M7.5 18.125a.63.63 0 0 1-.575-.387l-2.969-7.113H1.25v-1.25h3.125a.63.63 0 0 1 .575.387L7.5 15.8l5.038-13.519a.625.625 0 0 1 .587-.406.625.625 0 0 1 .581.425l2.369 7.075h2.675v1.25h-3.125a.625.625 0 0 1-.594-.425l-1.906-5.825-5.037 13.344a.625.625 0 0 1-.588.406"/></svg>
